; generated by PrusaSlicer 2.1.0+linux64 on 2019-09-27 at 19:48:34 UTC

; 

; external perimeters extrusion width = 0.45mm
; perimeters extrusion width = 0.45mm
; infill extrusion width = 0.45mm
; solid infill extrusion width = 0.45mm
; top infill extrusion width = 0.40mm
; first layer extrusion width = 0.42mm

M73 P0 R148
M73 Q0 S149
M201 X1000 Y1000 Z1000 E5000 ; sets maximum accelerations, mm/sec^2
M203 X200 Y200 Z12 E120 ; sets maximum feedrates, mm/sec
M204 P1250 R1250 T1250 ; sets acceleration (P, T) and retract acceleration (R), mm/sec^2
M205 X8.00 Y8.00 Z0.40 E1.50 ; sets the jerk limits, mm/sec
M205 S0 T0 ; sets the minimum extruding and travel feed rate, mm/sec
M107
M862.3 P "MK3S" ; printer model check
M862.1 P0.4 ; nozzle diameter check
M115 U3.8.0 ; tell printer latest fw version
G90 ; use absolute coordinates
M83 ; extruder relative mode
M104 S215 ; set extruder temp
M140 S60 ; set bed temp
M190 S60 ; wait for bed temp
M109 S215 ; wait for extruder temp
G28 W ; home all without mesh bed level
G80 ; mesh bed leveling
G1 Y-3.0 F1000.0 ; go outside print area
G92 E0.0
G1 X60.0 E9.0 F1000.0 ; intro line
M73 Q0 S149
M73 P0 R148
G1 X100.0 E12.5 F1000.0 ; intro line
G92 E0.0
M221 S95
G21 ; set units to millimeters
G90 ; use absolute coordinates
M83 ; use relative distances for extrusion
M900 K30 ; Filament gcode
;BEFORE_LAYER_CHANGE
G92 E0.0
;0.2


G1 E-0.80000 F2100.00000
G1 Z0.600 F10800.000
;AFTER_LAYER_CHANGE
;0.2
G1 X189.037 Y35.308
G1 Z0.200
G1 E0.80000 F2100.00000
M204 S1000
G1 F1200
G1 X189.742 Y35.776 E0.02653
G1 X190.217 Y36.476 E0.02653
G1 X190.391 Y37.304 E0.02653
G1 X190.392 Y102.337 E2.03905
G1 X190.219 Y180.003 E2.43517
G1 X190.128 Y180.619 E0.01953
G1 X189.834 Y181.233 E0.02134
G1 X189.367 Y181.727 E0.02134
G1 X188.769 Y182.054 E0.02134
G1 X188.101 Y182.182 E0.02134
G1 X145.177 Y182.183 E1.34585
G1 X144.557 Y182.092 E0.01964
G1 X143.979 Y181.823 E0.01998
G1 X143.503 Y181.400 E0.01998
G1 X143.169 Y180.857 E0.01998
G1 X143.006 Y180.241 E0.01998
G1 X130.025 Y53.551 E3.99305
G1 X130.015 Y41.303 E0.38405
G1 X130.206 Y39.818 E0.04695
G1 X130.622 Y38.657 E0.03866
G1 X131.234 Y37.655 E0.03682
G1 X132.341 Y36.496 E0.05024
G1 X133.716 Y35.673 E0.05025
G1 X134.829 Y35.298 E0.03682
G1 X136.027 Y35.150 E0.03785
G1 X188.207 Y35.143 E1.63605
G1 X188.978 Y35.297 E0.02465
G1 F8640
G1 X189.742 Y35.776 E-0.20828
G1 X190.217 Y36.476 E-0.19539
G1 X190.391 Y37.304 E-0.19539
G1 X190.391 Y38.001 E-0.16094
G1 E-0.04000 F2100.00000
G1 Z0.800 F10800.000
G1 X139.913 Y51.664
G1 Z0.200
G1 E0.80000 F2100.00000
G1 F1200
G1 X139.994 Y52.332 E0.02110
G1 X139.913 Y53.000 E0.02110
G1 X139.675 Y53.629 E0.02110
G1 X139.292 Y54.183 E0.02110
G1 X138.789 Y54.629 E0.02110
G1 X138.193 Y54.942 E0.02110
G1 X137.539 Y55.103 E0.02110
G1 X136.867 Y55.103 E0.02110
G1 X136.213 Y54.942 E0.02110
G1 X135.617 Y54.629 E0.02110
G1 X135.114 Y54.183 E0.02110
G1 X134.731 Y53.629 E0.02110
G1 X134.493 Y53.000 E0.02110
G1 X134.411 Y52.331 E0.02114
G1 X134.496 Y51.655 E0.02137
G1 X134.731 Y51.035 E0.02079
G1 X135.114 Y50.480 E0.02114
G1 X135.626 Y50.030 E0.02137
G1 X136.213 Y49.722 E0.02079
G1 X136.867 Y49.561 E0.02110
G1 X137.539 Y49.561 E0.02110
G1 X138.193 Y49.722 E0.02110
G1 X138.789 Y50.035 E0.02110
G1 X139.292 Y50.481 E0.02110
G1 X139.675 Y51.035 E0.02110
G1 X139.892 Y51.608 E0.01922
G1 X139.539 Y51.741 F10800.000
G1 F1200
G1 X139.615 Y52.332 E0.01866
G1 X139.544 Y52.909 E0.01823
G1 X139.338 Y53.453 E0.01823
G1 X139.008 Y53.931 E0.01823
G1 X138.573 Y54.317 E0.01823
G1 X138.058 Y54.587 E0.01823
G1 X137.494 Y54.726 E0.01823
G1 X136.912 Y54.726 E0.01823
G1 X136.348 Y54.587 E0.01823
G1 X135.833 Y54.317 E0.01823
G1 X135.398 Y53.931 E0.01823
G1 X135.068 Y53.453 E0.01823
G1 X134.862 Y52.909 E0.01823
G1 X134.791 Y52.331 E0.01824
G1 X134.865 Y51.746 E0.01850
G1 X135.068 Y51.211 E0.01794
G1 X135.398 Y50.732 E0.01824
G1 X135.841 Y50.343 E0.01850
G1 X136.348 Y50.077 E0.01794
G1 X136.912 Y49.938 E0.01823
G1 X137.494 Y49.938 E0.01823
G1 X138.058 Y50.077 E0.01823
G1 X138.573 Y50.347 E0.01823
G1 X139.008 Y50.733 E0.01823
G1 X139.338 Y51.211 E0.01823
G1 X139.518 Y51.685 E0.01590
G1 X139.924 Y51.851 F10800.000
G1 F8640
G1 X139.615 Y52.332 E-0.15093
G1 X139.544 Y52.909 E-0.13424
G1 X139.338 Y53.453 E-0.13424
G1 X139.008 Y53.931 E-0.13424
G1 X138.573 Y54.317 E-0.13424
G1 X138.296 Y54.462 E-0.07212
G1 E-0.04000 F2100.00000
G1 Z0.800 F10800.000
G1 X138.193 Y44.942
G1 Z0.200
G1 E0.80000 F2100.00000
G1 F1200
G1 X137.539 Y45.103 E0.02110
G1 X136.867 Y45.103 E0.02110
G1 X136.213 Y44.942 E0.02110
G1 X135.617 Y44.629 E0.02110
G1 X135.114 Y44.183 E0.02110
G1 X134.731 Y43.629 E0.02110
G1 X134.493 Y43.000 E0.02110
G1 X134.411 Y42.331 E0.02114
G1 X134.496 Y41.655 E0.02137
G1 X134.731 Y41.035 E0.02079
G1 X135.114 Y40.480 E0.02114
G1 X135.626 Y40.030 E0.02137
G1 X136.213 Y39.722 E0.02079
G1 X136.867 Y39.561 E0.02110
G1 X137.539 Y39.561 E0.02110
G1 X138.193 Y39.722 E0.02110
G1 X138.789 Y40.035 E0.02110
G1 X139.292 Y40.481 E0.02110
G1 X139.675 Y41.035 E0.02110
G1 X139.913 Y41.664 E0.02110
G1 X139.995 Y42.333 E0.02114
G1 X139.910 Y43.009 E0.02137
G1 X139.675 Y43.629 E0.02079
G1 X139.292 Y44.183 E0.02110
G1 X138.789 Y44.629 E0.02110
G1 X138.246 Y44.914 E0.01922
G1 X138.071 Y44.580 F10800.000
G1 F1200
G1 X137.494 Y44.726 E0.01866
G1 X136.912 Y44.726 E0.01823
G1 X136.348 Y44.587 E0.01823
G1 X135.833 Y44.317 E0.01823
G1 X135.398 Y43.931 E0.01823
G1 X135.068 Y43.453 E0.01823
G1 X134.862 Y42.909 E0.01823
G1 X134.791 Y42.331 E0.01824
G1 X134.865 Y41.746 E0.01850
G1 X135.068 Y41.211 E0.01794
G1 X135.398 Y40.732 E0.01824
G1 X135.841 Y40.343 E0.01850
G1 X136.348 Y40.077 E0.01794
G1 X136.912 Y39.938 E0.01823
G1 X137.494 Y39.938 E0.01823
G1 X138.058 Y40.077 E0.01823
G1 X138.573 Y40.347 E0.01823
G1 X139.008 Y40.733 E0.01823
G1 X139.338 Y41.211 E0.01823
G1 X139.544 Y41.755 E0.01823
G1 X139.615 Y42.332 E0.01824
G1 X139.541 Y42.918 E0.01850
G1 X139.338 Y43.453 E0.01794
G1 X139.008 Y43.931 E0.01823
G1 X138.573 Y44.317 E0.01823
G1 X138.124 Y44.552 E0.01590
G1 X138.008 Y44.975 F10800.000
G1 F8640
G1 X137.494 Y44.726 E-0.15093
G1 X136.912 Y44.726 E-0.13424
G1 X136.348 Y44.587 E-0.13424
G1 X135.833 Y44.317 E-0.13424
G1 X135.398 Y43.931 E-0.13424
G1 X135.220 Y43.674 E-0.07212
G1 E-0.04000 F2100.00000
G1 Z0.800 F10800.000
G1 X144.790 Y56.745
G1 Z0.200
G1 E0.80000 F2100.00000
G1 F1200
G1 X136.236 Y56.745 E0.26821
G1 X135.444 Y56.656 E0.02498
G1 X134.724 Y56.403 E0.02394
G1 X134.077 Y55.997 E0.02394
G1 X133.538 Y55.458 E0.02394
G1 X133.131 Y54.811 E0.02394
G1 X132.879 Y54.091 E0.02394
G1 X132.790 Y53.299 E0.02498
G1 X132.790 Y41.365 E0.37418
G1 X132.879 Y40.573 E0.02498
G1 X133.131 Y39.853 E0.02394
G1 X133.538 Y39.206 E0.02394
G1 X134.077 Y38.666 E0.02394
G1 X134.724 Y38.260 E0.02394
G1 X135.444 Y38.008 E0.02394
G1 X136.236 Y37.919 E0.02498
G1 X187.616 Y37.919 E1.61098
G1 X187.616 Y101.745 E2.00121
G1 X144.790 Y101.745 E1.34277
G1 X144.790 Y56.805 E1.40906
G1 X144.413 Y57.122 F10800.000
G1 F1200
G1 X136.215 Y57.122 E0.25705
G1 X135.360 Y57.026 E0.02697
G1 X134.559 Y56.745 E0.02660
G1 X133.841 Y56.294 E0.02660
G1 X133.241 Y55.694 E0.02660
G1 X132.789 Y54.976 E0.02660
G1 X132.509 Y54.175 E0.02660
G1 X132.413 Y53.320 E0.02697
G1 X132.413 Y41.344 E0.37551
G1 X132.509 Y40.489 E0.02697
G1 X132.789 Y39.688 E0.02660
G1 X133.241 Y38.970 E0.02660
G1 X133.841 Y38.370 E0.02660
G1 X134.559 Y37.918 E0.02660
G1 X135.360 Y37.638 E0.02660
G1 X136.215 Y37.542 E0.02697
G1 X187.993 Y37.542 E1.62347
G1 X187.993 Y102.122 E2.02486
G1 X144.413 Y102.122 E1.36642
G1 X144.413 Y57.182 E1.40906
G1 X144.312 Y56.735 F10800.000
G1 X144.458 Y56.632
G1 F1200
G1 X140.266 Y52.440 E0.18615
G1 X140.208 Y52.916 E0.01506
G1 X143.754 Y56.462 E0.15747
G1 X143.220 Y56.462 E0.01677
G1 X140.090 Y53.332 E0.13901
G1 X139.943 Y53.719 E0.01300
G1 X142.686 Y56.462 E0.12182
G1 X142.152 Y56.462 E0.01677
G1 X139.733 Y54.043 E0.10744
G1 X139.515 Y54.359 E0.01205
G1 X141.618 Y56.462 E0.09341
G1 X141.084 Y56.462 E0.01677
G1 X139.234 Y54.612 E0.08215
G1 X138.951 Y54.863 E0.01188
G1 X140.550 Y56.462 E0.07101
G1 X140.016 Y56.462 E0.01677
G1 X138.601 Y55.047 E0.06284
G1 X138.241 Y55.221 E0.01255
G1 X139.482 Y56.462 E0.05510
G1 X138.948 Y56.462 E0.01677
G1 X137.813 Y55.327 E0.05041
G1 X137.574 Y55.386 E0.00773
G1 X137.338 Y55.386 E0.00741
G1 X138.414 Y56.462 E0.04779
G1 X137.880 Y56.462 E0.01677
G1 X136.794 Y55.376 E0.04821
G1 X136.070 Y55.186 E0.02351
G1 X137.346 Y56.462 E0.05666
G1 X136.812 Y56.462 E0.01677
G1 X133.073 Y52.723 E0.16604
G1 X133.073 Y52.189 E0.01677
G1 X134.377 Y53.494 E0.05793
G1 X134.216 Y53.068 E0.01429
G1 X134.179 Y52.761 E0.00972
G1 X133.073 Y51.655 E0.04911
G1 X133.073 Y51.121 E0.01677
G1 X134.144 Y52.192 E0.04756
G1 X134.203 Y51.717 E0.01502
G1 X133.073 Y50.587 E0.05020
G1 X133.073 Y50.053 E0.01677
G1 X134.326 Y51.306 E0.05565
G1 X134.473 Y50.919 E0.01300
G1 X133.073 Y49.519 E0.06217
G1 X133.073 Y48.985 E0.01677
G1 X134.688 Y50.600 E0.07172
G1 X134.907 Y50.285 E0.01204
G1 X133.073 Y48.451 E0.08147
G1 X133.073 Y47.917 E0.01677
G1 X135.192 Y50.035 E0.09409
G1 X135.478 Y49.788 E0.01189
G1 X133.073 Y47.383 E0.10682
G1 X133.073 Y46.849 E0.01677
G1 X135.829 Y49.604 E0.12237
G1 X136.112 Y49.456 E0.01005
G1 X136.194 Y49.435 E0.00264
G1 X133.073 Y46.314 E0.13859
G1 X133.073 Y45.780 E0.01677
G1 X136.622 Y49.330 E0.15761
G1 X136.832 Y49.278 E0.00679
G1 X137.105 Y49.278 E0.00855
G1 X133.073 Y45.246 E0.17903
G1 X133.073 Y44.712 E0.01677
G1 X137.660 Y49.299 E0.20369
G1 X138.294 Y49.456 E0.02051
G1 X138.412 Y49.518 E0.00420
G1 X133.073 Y44.178 E0.23710
G1 X133.073 Y43.644 E0.01677
G1 X187.333 Y97.905 E2.40947
M73 Q0 S148
M73 P0 R147
G1 X187.333 Y97.370 E0.01677
G1 X133.073 Y43.110 E2.40947
G1 X133.073 Y42.576 E0.01677
G1 X187.503 Y97.006 E2.41701
G1 F8640
G1 X185.175 Y94.679 E-0.76000
G1 E-0.04000 F2100.00000
G1 Z0.800 F10800.000
G1 X187.503 Y98.608
G1 Z0.200
G1 E0.80000 F2100.00000
G1 F1200
G1 X140.006 Y51.112 E2.10912
G1 X140.190 Y51.596 E0.01625
G1 X140.222 Y51.862 E0.00841
G1 X187.333 Y98.973 E2.09200
G1 X187.333 Y99.507 E0.01677
G1 X145.073 Y57.246 E1.87660
G1 X145.073 Y57.780 E0.01677
G1 X187.333 Y100.041 E1.87660
G1 X187.333 Y100.575 E0.01677
G1 X145.073 Y58.314 E1.87660
G1 X145.073 Y58.849 E0.01677
G1 X187.333 Y101.109 E1.87660
G1 X187.333 Y101.462 E0.01109
G1 X187.152 Y101.462 E0.00568
G1 X145.073 Y59.383 E1.86857
G1 X145.073 Y59.917 E0.01677
G1 X186.618 Y101.462 E1.84486
G1 X186.084 Y101.462 E0.01677
G1 X145.073 Y60.451 E1.82114
G1 X145.073 Y60.985 E0.01677
G1 X185.550 Y101.462 E1.79743
G1 X185.016 Y101.462 E0.01677
G1 X145.073 Y61.519 E1.77371
G1 X145.073 Y62.053 E0.01677
G1 X184.482 Y101.462 E1.75000
G1 X183.948 Y101.462 E0.01677
G1 X145.073 Y62.587 E1.72629
G1 X145.073 Y63.121 E0.01677
G1 X183.414 Y101.462 E1.70257
G1 X182.880 Y101.462 E0.01677
G1 X145.073 Y63.655 E1.67886
G1 X145.073 Y64.189 E0.01677
G1 X182.346 Y101.462 E1.65514
G1 X181.812 Y101.462 E0.01677
G1 X145.073 Y64.723 E1.63143
G1 X145.073 Y65.257 E0.01677
G1 X181.278 Y101.462 E1.60771
M73 Q1 S147
M73 P1 R146
G1 X180.744 Y101.462 E0.01677
G1 X145.073 Y65.791 E1.58400
G1 X145.073 Y66.325 E0.01677
G1 X180.210 Y101.462 E1.56028
G1 X179.676 Y101.462 E0.01677
G1 X145.073 Y66.859 E1.53657
G1 X145.073 Y67.393 E0.01677
G1 X179.142 Y101.462 E1.51285
G1 X178.608 Y101.462 E0.01677
G1 X145.073 Y67.927 E1.48914
G1 X145.073 Y68.461 E0.01677
G1 X178.074 Y101.462 E1.46543
G1 X177.540 Y101.462 E0.01677
G1 X145.073 Y68.995 E1.44171
G1 X145.073 Y69.529 E0.01677
G1 X177.006 Y101.462 E1.41800
G1 X176.471 Y101.462 E0.01677
G1 X145.073 Y70.063 E1.39428
G1 X145.073 Y70.597 E0.01677
G1 X175.937 Y101.462 E1.37057
G1 X175.403 Y101.462 E0.01677
G1 X145.073 Y71.131 E1.34685
G1 X145.073 Y71.666 E0.01677
G1 X174.869 Y101.462 E1.32314
G1 X174.335 Y101.462 E0.01677
G1 X145.073 Y72.200 E1.29942
G1 X145.073 Y72.734 E0.01677
G1 X173.801 Y101.462 E1.27571
G1 X173.267 Y101.462 E0.01677
G1 X145.073 Y73.268 E1.25199
G1 X145.073 Y73.802 E0.01677
G1 X172.733 Y101.462 E1.22828
G1 X172.199 Y101.462 E0.01677
G1 X145.073 Y74.336 E1.20456
G1 X145.073 Y74.870 E0.01677
G1 X171.665 Y101.462 E1.18085
G1 X171.131 Y101.462 E0.01677
G1 X145.073 Y75.404 E1.15714
G1 X145.073 Y75.938 E0.01677
G1 X170.597 Y101.462 E1.13342
G1 X170.063 Y101.462 E0.01677
G1 X145.073 Y76.472 E1.10971
G1 X145.073 Y77.006 E0.01677
G1 X169.529 Y101.462 E1.08599
G1 X168.995 Y101.462 E0.01677
G1 X145.073 Y77.540 E1.06228
G1 X145.073 Y78.074 E0.01677
G1 X168.461 Y101.462 E1.03856
G1 X167.927 Y101.462 E0.01677
G1 X145.073 Y78.608 E1.01485
G1 X145.073 Y79.142 E0.01677
G1 X167.393 Y101.462 E0.99113
G1 X166.859 Y101.462 E0.01677
G1 X145.073 Y79.676 E0.96742
G1 X145.073 Y80.210 E0.01677
G1 X166.325 Y101.462 E0.94370
G1 X165.791 Y101.462 E0.01677
G1 X145.073 Y80.744 E0.91999
G1 X145.073 Y81.278 E0.01677
G1 X165.257 Y101.462 E0.89628
M73 Q2 S146
M73 P2 R145
G1 X164.723 Y101.462 E0.01677
G1 X145.073 Y81.812 E0.87256
G1 X145.073 Y82.346 E0.01677
G1 X164.188 Y101.462 E0.84885
G1 X163.654 Y101.462 E0.01677
G1 X145.073 Y82.880 E0.82513
G1 X145.073 Y83.414 E0.01677
G1 X163.120 Y101.462 E0.80142
G1 X162.586 Y101.462 E0.01677
G1 X145.073 Y83.949 E0.77770
G1 X145.073 Y84.483 E0.01677
G1 X162.052 Y101.462 E0.75399
G1 X161.518 Y101.462 E0.01677
G1 X145.073 Y85.017 E0.73027
G1 X145.073 Y85.551 E0.01677
G1 X160.984 Y101.462 E0.70656
G1 X160.450 Y101.462 E0.01677
G1 X145.073 Y86.085 E0.68284
G1 X145.073 Y86.619 E0.01677
G1 X159.916 Y101.462 E0.65913
G1 X159.382 Y101.462 E0.01677
G1 X145.073 Y87.153 E0.63541
G1 X145.073 Y87.687 E0.01677
G1 X158.848 Y101.462 E0.61170
G1 X158.314 Y101.462 E0.01677
G1 X145.073 Y88.221 E0.58799
G1 X145.073 Y88.755 E0.01677
G1 X157.780 Y101.462 E0.56427
G1 X157.246 Y101.462 E0.01677
G1 X145.073 Y89.289 E0.54056
G1 X145.073 Y89.823 E0.01677
G1 X156.712 Y101.462 E0.51684
G1 X156.178 Y101.462 E0.01677
G1 X145.073 Y90.357 E0.49313
G1 X145.073 Y90.891 E0.01677
G1 X155.644 Y101.462 E0.46941
G1 X155.110 Y101.462 E0.01677
G1 X145.073 Y91.425 E0.44570
G1 X145.073 Y91.959 E0.01677
G1 X154.576 Y101.462 E0.42198
G1 X154.042 Y101.462 E0.01677
G1 X145.073 Y92.493 E0.39827
G1 X145.073 Y93.027 E0.01677
G1 X153.508 Y101.462 E0.37455
G1 X152.974 Y101.462 E0.01677
G1 X145.073 Y93.561 E0.35084
G1 X145.073 Y94.095 E0.01677
G1 X152.440 Y101.462 E0.32713
G1 X151.906 Y101.462 E0.01677
G1 X145.073 Y94.629 E0.30341
G1 X145.073 Y95.163 E0.01677
G1 X151.371 Y101.462 E0.27970
G1 X150.837 Y101.462 E0.01677
G1 X145.073 Y95.697 E0.25598
G1 X145.073 Y96.231 E0.01677
G1 X150.303 Y101.462 E0.23227
G1 X149.769 Y101.462 E0.01677
G1 X145.073 Y96.766 E0.20855
G1 X145.073 Y97.300 E0.01677
G1 X149.235 Y101.462 E0.18484
G1 X148.701 Y101.462 E0.01677
G1 X145.073 Y97.834 E0.16112
G1 X145.073 Y98.368 E0.01677
G1 X148.167 Y101.462 E0.13741
G1 X147.633 Y101.462 E0.01677
G1 X145.073 Y98.902 E0.11369
G1 X145.073 Y99.436 E0.01677
G1 X147.099 Y101.462 E0.08998
G1 X146.565 Y101.462 E0.01677
G1 X145.073 Y99.970 E0.06626
G1 X145.073 Y100.504 E0.01677
G1 X146.031 Y101.462 E0.04255
G1 X145.497 Y101.462 E0.01677
G1 X144.903 Y100.868 E0.02637
G1 F8640
G1 X145.497 Y101.462 E-0.19392
G1 X146.031 Y101.462 E-0.12331
G1 X145.073 Y100.504 E-0.31290
G1 X145.073 Y99.970 E-0.12331
G1 X145.093 Y99.990 E-0.00656
G1 E-0.04000 F2100.00000
G1 Z0.800 F10800.000
G1 X136.448 Y56.632
G1 Z0.200
G1 E0.80000 F2100.00000
G1 F1200
G1 X133.073 Y53.257 E0.14986
G1 X133.137 Y53.856 E0.01890
G1 X135.679 Y56.398 E0.11288
G1 X135.508 Y56.378 E0.00542
G1 X134.920 Y56.173 E0.01954
G1 X133.086 Y54.338 E0.08148
G1 F8640
G1 X134.920 Y56.173 E-0.59915
G1 X135.508 Y56.378 E-0.14366
G1 X135.582 Y56.387 E-0.01719
G1 E-0.04000 F2100.00000
G1 Z0.800 F10800.000
G1 X136.280 Y45.250
G1 Z0.200
G1 E0.80000 F2100.00000
G1 F1200
G1 X187.333 Y96.302 E2.26703
G1 X187.333 Y95.768 E0.01677
G1 X136.950 Y45.386 E2.23728
G1 X137.485 Y45.386 E0.01677
G1 X187.333 Y95.234 E2.21357
G1 X187.333 Y94.700 E0.01677
G1 X137.931 Y45.298 E2.19376
G1 X138.347 Y45.180 E0.01359
G1 X187.333 Y94.166 E2.17526
G1 X187.333 Y93.632 E0.01677
G1 X138.697 Y44.996 E2.15971
G1 X138.950 Y44.864 E0.00898
G1 X139.029 Y44.794 E0.00329
G1 X187.333 Y93.098 E2.14498
