; generated by PrusaSlicer 2.1.0+linux64 on 2019-09-25 at 09:47:58 UTC

; 

; external perimeters extrusion width = 0.45mm
; perimeters extrusion width = 0.45mm
; infill extrusion width = 0.45mm
; solid infill extrusion width = 0.45mm
; top infill extrusion width = 0.40mm
; first layer extrusion width = 0.42mm

M73 P0 R150
M73 Q0 S151
M201 X1000 Y1000 Z1000 E5000 ; sets maximum accelerations, mm/sec^2
M203 X200 Y200 Z12 E120 ; sets maximum feedrates, mm/sec
M204 P1250 R1250 T1250 ; sets acceleration (P, T) and retract acceleration (R), mm/sec^2
M205 X8.00 Y8.00 Z0.40 E1.50 ; sets the jerk limits, mm/sec
M205 S0 T0 ; sets the minimum extruding and travel feed rate, mm/sec
M107
M862.3 P "MK3S" ; printer model check
M862.1 P0.4 ; nozzle diameter check
M115 U3.8.0 ; tell printer latest fw version
G90 ; use absolute coordinates
M83 ; extruder relative mode
M104 S215 ; set extruder temp
M140 S60 ; set bed temp
M190 S60 ; wait for bed temp
M109 S215 ; wait for extruder temp
G28 W ; home all without mesh bed level
G80 ; mesh bed leveling
G1 Y-3.0 F1000.0 ; go outside print area
G92 E0.0
G1 X60.0 E9.0 F1000.0 ; intro line
M73 Q0 S151
M73 P0 R150
G1 X100.0 E12.5 F1000.0 ; intro line
G92 E0.0
M221 S95
G21 ; set units to millimeters
G90 ; use absolute coordinates
M83 ; use relative distances for extrusion
M900 K30 ; Filament gcode
;BEFORE_LAYER_CHANGE
G92 E0.0
;0.2


G1 E-0.80000 F2100.00000
G1 Z0.600 F10800.000
;AFTER_LAYER_CHANGE
;0.2
G1 X208.880 Y13.663
G1 Z0.200
G1 E0.80000 F2100.00000
M204 S1000
G1 F1200
G1 X209.587 Y14.135 E0.02664
G1 X210.060 Y14.841 E0.02664
G1 X210.228 Y15.674 E0.02664
G1 X210.228 Y80.709 E2.03913
G1 X208.721 Y157.378 E2.40436
G1 X208.624 Y157.978 E0.01908
G1 X208.326 Y158.586 E0.02123
G1 X207.859 Y159.072 E0.02112
G1 X207.267 Y159.393 E0.02112
G1 X206.602 Y159.518 E0.02123
G1 X163.529 Y159.520 E1.35051
G1 X162.885 Y159.421 E0.02044
G1 X162.310 Y159.146 E0.01998
G1 X161.839 Y158.717 E0.01998
G1 X161.512 Y158.170 E0.01998
G1 X161.356 Y157.552 E0.01998
G1 X149.860 Y31.883 E3.95672
G1 X149.851 Y19.654 E0.38342
G1 X150.049 Y18.148 E0.04762
G1 X150.461 Y17.006 E0.03808
G1 X151.073 Y16.004 E0.03682
G1 X152.181 Y14.845 E0.05025
G1 X153.556 Y14.023 E0.05025
G1 X154.669 Y13.649 E0.03682
G1 X155.864 Y13.502 E0.03774
G1 X208.043 Y13.495 E1.63605
G1 X208.821 Y13.651 E0.02488
G1 F8640
G1 X209.587 Y14.135 E-0.20909
G1 X210.060 Y14.841 E-0.19622
G1 X210.228 Y15.674 E-0.19622
G1 X210.228 Y16.360 E-0.15846
G1 E-0.04000 F2100.00000
G1 Z0.800 F10800.000
G1 X159.750 Y30.015
G1 Z0.200
G1 E0.80000 F2100.00000
G1 F1200
G1 X159.831 Y30.683 E0.02110
G1 X159.750 Y31.351 E0.02110
G1 X159.511 Y31.981 E0.02110
G1 X159.129 Y32.534 E0.02110
G1 X158.625 Y32.981 E0.02110
G1 X158.030 Y33.293 E0.02110
G1 X157.376 Y33.454 E0.02110
G1 X156.703 Y33.454 E0.02110
G1 X156.050 Y33.293 E0.02110
G1 X155.454 Y32.981 E0.02110
G1 X154.950 Y32.534 E0.02110
G1 X154.568 Y31.981 E0.02110
G1 X154.329 Y31.351 E0.02110
G1 X154.248 Y30.682 E0.02114
G1 X154.333 Y30.006 E0.02137
G1 X154.568 Y29.386 E0.02079
G1 X154.951 Y28.831 E0.02114
G1 X155.463 Y28.381 E0.02137
G1 X156.050 Y28.073 E0.02079
G1 X156.703 Y27.912 E0.02110
G1 X157.376 Y27.912 E0.02110
G1 X158.030 Y28.073 E0.02110
G1 X158.625 Y28.386 E0.02110
G1 X159.129 Y28.832 E0.02110
G1 X159.511 Y29.386 E0.02110
G1 X159.729 Y29.959 E0.01922
G1 X159.376 Y30.093 F10800.000
G1 F1200
G1 X159.451 Y30.683 E0.01866
G1 X159.381 Y31.261 E0.01823
G1 X159.175 Y31.804 E0.01823
G1 X158.845 Y32.283 E0.01823
G1 X158.410 Y32.668 E0.01823
G1 X157.895 Y32.938 E0.01823
G1 X157.330 Y33.077 E0.01823
G1 X156.749 Y33.077 E0.01823
G1 X156.185 Y32.938 E0.01823
G1 X155.670 Y32.668 E0.01823
G1 X155.235 Y32.283 E0.01823
G1 X154.904 Y31.804 E0.01823
G1 X154.698 Y31.261 E0.01823
G1 X154.628 Y30.683 E0.01824
G1 X154.702 Y30.098 E0.01850
G1 X154.904 Y29.563 E0.01794
G1 X155.235 Y29.084 E0.01824
G1 X155.678 Y28.694 E0.01850
G1 X156.185 Y28.429 E0.01794
G1 X156.749 Y28.289 E0.01823
G1 X157.330 Y28.289 E0.01823
G1 X157.895 Y28.429 E0.01823
G1 X158.410 Y28.699 E0.01823
G1 X158.845 Y29.084 E0.01823
G1 X159.175 Y29.563 E0.01823
G1 X159.355 Y30.037 E0.01590
G1 X159.761 Y30.203 F10800.000
G1 F8640
G1 X159.451 Y30.683 E-0.15093
G1 X159.381 Y31.261 E-0.13424
G1 X159.175 Y31.804 E-0.13424
G1 X158.845 Y32.283 E-0.13424
G1 X158.410 Y32.668 E-0.13424
G1 X158.133 Y32.813 E-0.07212
G1 E-0.04000 F2100.00000
G1 Z0.800 F10800.000
G1 X158.030 Y23.293
G1 Z0.200
G1 E0.80000 F2100.00000
G1 F1200
G1 X157.376 Y23.454 E0.02110
G1 X156.703 Y23.454 E0.02110
G1 X156.050 Y23.293 E0.02110
G1 X155.454 Y22.981 E0.02110
G1 X154.950 Y22.534 E0.02110
G1 X154.568 Y21.981 E0.02110
G1 X154.329 Y21.351 E0.02110
G1 X154.248 Y20.682 E0.02114
G1 X154.333 Y20.006 E0.02137
G1 X154.568 Y19.386 E0.02079
G1 X154.951 Y18.831 E0.02114
G1 X155.463 Y18.381 E0.02137
G1 X156.050 Y18.073 E0.02079
G1 X156.703 Y17.912 E0.02110
G1 X157.376 Y17.912 E0.02110
G1 X158.030 Y18.073 E0.02110
G1 X158.625 Y18.386 E0.02110
G1 X159.129 Y18.832 E0.02110
G1 X159.511 Y19.386 E0.02110
G1 X159.750 Y20.015 E0.02110
G1 X159.831 Y20.685 E0.02114
G1 X159.746 Y21.361 E0.02137
G1 X159.511 Y21.981 E0.02079
G1 X159.129 Y22.534 E0.02110
G1 X158.625 Y22.981 E0.02110
G1 X158.083 Y23.266 E0.01922
G1 X157.907 Y22.932 F10800.000
G1 F1200
G1 X157.330 Y23.077 E0.01866
G1 X156.749 Y23.077 E0.01823
G1 X156.185 Y22.938 E0.01823
G1 X155.670 Y22.668 E0.01823
G1 X155.235 Y22.283 E0.01823
G1 X154.904 Y21.804 E0.01823
G1 X154.698 Y21.261 E0.01823
G1 X154.628 Y20.683 E0.01824
G1 X154.702 Y20.098 E0.01850
G1 X154.904 Y19.563 E0.01794
G1 X155.235 Y19.084 E0.01824
G1 X155.678 Y18.694 E0.01850
G1 X156.185 Y18.429 E0.01794
G1 X156.749 Y18.289 E0.01823
G1 X157.330 Y18.289 E0.01823
G1 X157.895 Y18.429 E0.01823
G1 X158.410 Y18.699 E0.01823
G1 X158.845 Y19.084 E0.01823
G1 X159.175 Y19.563 E0.01823
G1 X159.381 Y20.106 E0.01823
G1 X159.451 Y20.684 E0.01824
G1 X159.378 Y21.269 E0.01850
G1 X159.175 Y21.804 E0.01794
G1 X158.845 Y22.283 E0.01823
G1 X158.410 Y22.668 E0.01823
G1 X157.961 Y22.904 E0.01590
G1 X157.845 Y23.327 F10800.000
G1 F8640
G1 X157.330 Y23.077 E-0.15093
G1 X156.749 Y23.077 E-0.13424
G1 X156.185 Y22.938 E-0.13424
G1 X155.670 Y22.668 E-0.13424
G1 X155.235 Y22.283 E-0.13424
G1 X155.057 Y22.026 E-0.07212
G1 E-0.04000 F2100.00000
G1 Z0.800 F10800.000
G1 X164.627 Y35.096
G1 Z0.200
G1 E0.80000 F2100.00000
G1 F1200
G1 X156.073 Y35.096 E0.26821
G1 X155.281 Y35.007 E0.02498
G1 X154.561 Y34.755 E0.02394
G1 X153.914 Y34.349 E0.02394
G1 X153.374 Y33.809 E0.02394
G1 X152.968 Y33.163 E0.02394
G1 X152.716 Y32.442 E0.02394
G1 X152.627 Y31.650 E0.02498
G1 X152.627 Y19.716 E0.37418
G1 X152.716 Y18.925 E0.02498
G1 X152.968 Y18.204 E0.02394
G1 X153.374 Y17.558 E0.02394
G1 X153.914 Y17.018 E0.02394
G1 X154.561 Y16.612 E0.02394
G1 X155.281 Y16.360 E0.02394
G1 X156.073 Y16.270 E0.02498
G1 X207.453 Y16.270 E1.61098
G1 X207.453 Y80.096 E2.00121
G1 X164.627 Y80.096 E1.34277
G1 X164.627 Y35.156 E1.40906
G1 X164.250 Y35.473 F10800.000
G1 F1200
G1 X156.052 Y35.473 E0.25705
G1 X155.197 Y35.377 E0.02697
G1 X154.396 Y35.097 E0.02660
G1 X153.678 Y34.646 E0.02660
G1 X153.078 Y34.046 E0.02660
G1 X152.626 Y33.327 E0.02660
G1 X152.346 Y32.526 E0.02660
G1 X152.250 Y31.672 E0.02697
G1 X152.250 Y19.695 E0.37551
G1 X152.346 Y18.840 E0.02697
G1 X152.626 Y18.040 E0.02660
G1 X153.078 Y17.321 E0.02660
G1 X153.678 Y16.721 E0.02660
G1 X154.396 Y16.270 E0.02660
G1 X155.197 Y15.990 E0.02660
G1 X156.052 Y15.893 E0.02697
G1 X207.830 Y15.893 E1.62347
G1 X207.830 Y80.473 E2.02486
G1 X164.250 Y80.473 E1.36642
G1 X164.250 Y35.533 E1.40906
G1 X164.148 Y35.087 F10800.000
G1 X164.295 Y34.983
G1 F1200
G1 X160.103 Y30.791 E0.18615
G1 X160.045 Y31.267 E0.01506
G1 X163.591 Y34.814 E0.15747
G1 X163.057 Y34.814 E0.01677
G1 X159.927 Y31.683 E0.13901
G1 X159.780 Y32.070 E0.01300
G1 X162.523 Y34.814 E0.12182
G1 X161.989 Y34.814 E0.01677
G1 X159.570 Y32.394 E0.10744
G1 X159.352 Y32.710 E0.01205
G1 X161.455 Y34.814 E0.09341
G1 X160.921 Y34.814 E0.01677
G1 X159.071 Y32.964 E0.08215
G1 X158.788 Y33.215 E0.01188
G1 X160.387 Y34.814 E0.07101
G1 X159.853 Y34.814 E0.01677
G1 X158.438 Y33.399 E0.06284
G1 X158.078 Y33.573 E0.01255
G1 X159.319 Y34.814 E0.05510
G1 X158.785 Y34.814 E0.01677
G1 X157.650 Y33.678 E0.05041
G1 X157.411 Y33.737 E0.00773
G1 X157.174 Y33.737 E0.00741
G1 X158.251 Y34.814 E0.04779
G1 X157.717 Y34.814 E0.01677
G1 X156.631 Y33.728 E0.04821
G1 X155.907 Y33.538 E0.02351
G1 X157.183 Y34.814 E0.05666
G1 X156.649 Y34.814 E0.01677
G1 X152.910 Y31.075 E0.16604
G1 X152.910 Y30.540 E0.01677
G1 X154.214 Y31.845 E0.05793
G1 X154.053 Y31.420 E0.01429
G1 X154.016 Y31.112 E0.00972
G1 X152.910 Y30.006 E0.04911
G1 X152.910 Y29.472 E0.01677
G1 X153.981 Y30.543 E0.04756
G1 X154.040 Y30.069 E0.01502
G1 X152.910 Y28.938 E0.05020
G1 X152.910 Y28.404 E0.01677
G1 X154.163 Y29.657 E0.05565
G1 X154.310 Y29.270 E0.01300
G1 X152.910 Y27.870 E0.06217
G1 X152.910 Y27.336 E0.01677
G1 X154.525 Y28.951 E0.07172
G1 X154.744 Y28.637 E0.01204
G1 X152.910 Y26.802 E0.08147
G1 X152.910 Y26.268 E0.01677
G1 X155.028 Y28.387 E0.09409
G1 X155.315 Y28.140 E0.01189
G1 X152.910 Y25.734 E0.10682
G1 X152.910 Y25.200 E0.01677
G1 X155.665 Y27.956 E0.12237
G1 X155.949 Y27.807 E0.01005
G1 X156.031 Y27.787 E0.00264
G1 X152.910 Y24.666 E0.13859
G1 X152.910 Y24.132 E0.01677
G1 X156.459 Y27.681 E0.15761
G1 X156.669 Y27.630 E0.00679
G1 X156.941 Y27.630 E0.00855
G1 X152.910 Y23.598 E0.17903
G1 X152.910 Y23.064 E0.01677
G1 X157.497 Y27.651 E0.20369
G1 X158.131 Y27.807 E0.02051
G1 X158.249 Y27.869 E0.00420
G1 X152.910 Y22.530 E0.23710
G1 X152.910 Y21.996 E0.01677
G1 X207.170 Y76.256 E2.40947
M73 Q0 S150
M73 P0 R149
G1 X207.170 Y75.722 E0.01677
G1 X152.910 Y21.462 E2.40947
G1 X152.910 Y20.928 E0.01677
G1 X207.340 Y75.358 E2.41701
G1 F8640
G1 X205.012 Y73.030 E-0.76000
G1 E-0.04000 F2100.00000
G1 Z0.800 F10800.000
G1 X207.340 Y76.960
G1 Z0.200
G1 E0.80000 F2100.00000
G1 F1200
G1 X159.843 Y29.463 E2.10912
G1 X160.027 Y29.947 E0.01625
G1 X160.059 Y30.213 E0.00841
G1 X207.170 Y77.324 E2.09200
G1 X207.170 Y77.858 E0.01677
G1 X164.910 Y35.598 E1.87660
G1 X164.910 Y36.132 E0.01677
G1 X207.170 Y78.392 E1.87660
G1 X207.170 Y78.926 E0.01677
G1 X164.910 Y36.666 E1.87660
G1 X164.910 Y37.200 E0.01677
G1 X207.170 Y79.460 E1.87660
G1 X207.170 Y79.814 E0.01109
G1 X206.989 Y79.814 E0.00568
G1 X164.910 Y37.734 E1.86857
G1 X164.910 Y38.268 E0.01677
G1 X206.455 Y79.814 E1.84486
G1 X205.921 Y79.814 E0.01677
G1 X164.910 Y38.802 E1.82114
G1 X164.910 Y39.336 E0.01677
G1 X205.387 Y79.814 E1.79743
G1 X204.853 Y79.814 E0.01677
G1 X164.910 Y39.870 E1.77371
G1 X164.910 Y40.404 E0.01677
G1 X204.319 Y79.814 E1.75000
G1 X203.785 Y79.814 E0.01677
G1 X164.910 Y40.938 E1.72629
G1 X164.910 Y41.472 E0.01677
G1 X203.251 Y79.814 E1.70257
G1 X202.717 Y79.814 E0.01677
G1 X164.910 Y42.006 E1.67886
G1 X164.910 Y42.540 E0.01677
G1 X202.183 Y79.814 E1.65514
G1 X201.649 Y79.814 E0.01677
G1 X164.910 Y43.075 E1.63143
G1 X164.910 Y43.609 E0.01677
G1 X201.115 Y79.814 E1.60771
M73 Q1 S149
M73 P1 R148
G1 X200.581 Y79.814 E0.01677
G1 X164.910 Y44.143 E1.58400
G1 X164.910 Y44.677 E0.01677
G1 X200.047 Y79.814 E1.56028
G1 X199.513 Y79.814 E0.01677
G1 X164.910 Y45.211 E1.53657
G1 X164.910 Y45.745 E0.01677
G1 X198.978 Y79.814 E1.51285
G1 X198.444 Y79.814 E0.01677
G1 X164.910 Y46.279 E1.48914
G1 X164.910 Y46.813 E0.01677
G1 X197.910 Y79.814 E1.46543
G1 X197.376 Y79.814 E0.01677
G1 X164.910 Y47.347 E1.44171
G1 X164.910 Y47.881 E0.01677
G1 X196.842 Y79.814 E1.41800
G1 X196.308 Y79.814 E0.01677
G1 X164.910 Y48.415 E1.39428
G1 X164.910 Y48.949 E0.01677
G1 X195.774 Y79.814 E1.37057
G1 X195.240 Y79.814 E0.01677
G1 X164.910 Y49.483 E1.34685
G1 X164.910 Y50.017 E0.01677
G1 X194.706 Y79.814 E1.32314
G1 X194.172 Y79.814 E0.01677
G1 X164.910 Y50.551 E1.29942
G1 X164.910 Y51.085 E0.01677
G1 X193.638 Y79.814 E1.27571
G1 X193.104 Y79.814 E0.01677
G1 X164.910 Y51.619 E1.25199
G1 X164.910 Y52.153 E0.01677
G1 X192.570 Y79.814 E1.22828
G1 X192.036 Y79.814 E0.01677
G1 X164.910 Y52.687 E1.20456
G1 X164.910 Y53.221 E0.01677
G1 X191.502 Y79.814 E1.18085
G1 X190.968 Y79.814 E0.01677
G1 X164.910 Y53.755 E1.15714
G1 X164.910 Y54.289 E0.01677
G1 X190.434 Y79.814 E1.13342
G1 X189.900 Y79.814 E0.01677
G1 X164.910 Y54.823 E1.10971
G1 X164.910 Y55.357 E0.01677
G1 X189.366 Y79.814 E1.08599
G1 X188.832 Y79.814 E0.01677
G1 X164.910 Y55.892 E1.06228
G1 X164.910 Y56.426 E0.01677
G1 X188.298 Y79.814 E1.03856
G1 X187.764 Y79.814 E0.01677
G1 X164.910 Y56.960 E1.01485
G1 X164.910 Y57.494 E0.01677
G1 X187.230 Y79.814 E0.99113
G1 X186.695 Y79.814 E0.01677
G1 X164.910 Y58.028 E0.96742
G1 X164.910 Y58.562 E0.01677
G1 X186.161 Y79.814 E0.94370
G1 X185.627 Y79.814 E0.01677
G1 X164.910 Y59.096 E0.91999
G1 X164.910 Y59.630 E0.01677
G1 X185.093 Y79.814 E0.89628
M73 Q2 S148
M73 P2 R147
G1 X184.559 Y79.814 E0.01677
G1 X164.910 Y60.164 E0.87256
G1 X164.910 Y60.698 E0.01677
G1 X184.025 Y79.814 E0.84885
G1 X183.491 Y79.814 E0.01677
G1 X164.910 Y61.232 E0.82513
G1 X164.910 Y61.766 E0.01677
G1 X182.957 Y79.814 E0.80142
G1 X182.423 Y79.814 E0.01677
G1 X164.910 Y62.300 E0.77770
G1 X164.910 Y62.834 E0.01677
G1 X181.889 Y79.814 E0.75399
G1 X181.355 Y79.814 E0.01677
G1 X164.910 Y63.368 E0.73027
G1 X164.910 Y63.902 E0.01677
G1 X180.821 Y79.814 E0.70656
G1 X180.287 Y79.814 E0.01677
G1 X164.910 Y64.436 E0.68284
G1 X164.910 Y64.970 E0.01677
G1 X179.753 Y79.814 E0.65913
G1 X179.219 Y79.814 E0.01677
G1 X164.910 Y65.504 E0.63541
G1 X164.910 Y66.038 E0.01677
G1 X178.685 Y79.814 E0.61170
G1 X178.151 Y79.814 E0.01677
G1 X164.910 Y66.572 E0.58799
G1 X164.910 Y67.106 E0.01677
G1 X177.617 Y79.814 E0.56427
G1 X177.083 Y79.814 E0.01677
G1 X164.910 Y67.640 E0.54056
G1 X164.910 Y68.174 E0.01677
G1 X176.549 Y79.814 E0.51684
G1 X176.015 Y79.814 E0.01677
G1 X164.910 Y68.709 E0.49313
G1 X164.910 Y69.243 E0.01677
G1 X175.481 Y79.814 E0.46941
G1 X174.947 Y79.814 E0.01677
G1 X164.910 Y69.777 E0.44570
G1 X164.910 Y70.311 E0.01677
G1 X174.413 Y79.814 E0.42198
G1 X173.878 Y79.814 E0.01677
G1 X164.910 Y70.845 E0.39827
G1 X164.910 Y71.379 E0.01677
G1 X173.344 Y79.814 E0.37455
G1 X172.810 Y79.814 E0.01677
G1 X164.910 Y71.913 E0.35084
G1 X164.910 Y72.447 E0.01677
G1 X172.276 Y79.814 E0.32713
G1 X171.742 Y79.814 E0.01677
G1 X164.910 Y72.981 E0.30341
G1 X164.910 Y73.515 E0.01677
G1 X171.208 Y79.814 E0.27970
G1 X170.674 Y79.814 E0.01677
G1 X164.910 Y74.049 E0.25598
G1 X164.910 Y74.583 E0.01677
G1 X170.140 Y79.814 E0.23227
G1 X169.606 Y79.814 E0.01677
G1 X164.910 Y75.117 E0.20855
G1 X164.910 Y75.651 E0.01677
G1 X169.072 Y79.814 E0.18484
G1 X168.538 Y79.814 E0.01677
G1 X164.910 Y76.185 E0.16112
G1 X164.910 Y76.719 E0.01677
G1 X168.004 Y79.814 E0.13741
G1 X167.470 Y79.814 E0.01677
G1 X164.910 Y77.253 E0.11369
G1 X164.910 Y77.787 E0.01677
G1 X166.936 Y79.814 E0.08998
G1 X166.402 Y79.814 E0.01677
G1 X164.910 Y78.321 E0.06626
G1 X164.910 Y78.855 E0.01677
G1 X165.868 Y79.814 E0.04255
G1 X165.334 Y79.814 E0.01677
G1 X164.740 Y79.220 E0.02637
G1 F8640
G1 X165.334 Y79.814 E-0.19392
G1 X165.868 Y79.814 E-0.12331
G1 X164.910 Y78.855 E-0.31290
G1 X164.910 Y78.321 E-0.12331
G1 X164.930 Y78.341 E-0.00656
G1 E-0.04000 F2100.00000
G1 Z0.800 F10800.000
G1 X156.284 Y34.983
G1 Z0.200
G1 E0.80000 F2100.00000
G1 F1200
G1 X152.910 Y31.609 E0.14986
G1 X152.974 Y32.207 E0.01890
G1 X155.516 Y34.749 E0.11288
G1 X155.344 Y34.730 E0.00542
G1 X154.757 Y34.524 E0.01954
G1 X152.922 Y32.689 E0.08148
G1 F8640
G1 X154.757 Y34.524 E-0.59915
G1 X155.344 Y34.730 E-0.14366
G1 X155.418 Y34.738 E-0.01719
G1 E-0.04000 F2100.00000
G1 Z0.800 F10800.000
G1 X156.117 Y23.601
G1 Z0.200
G1 E0.80000 F2100.00000
G1 F1200
G1 X207.170 Y74.654 E2.26703
G1 X207.170 Y74.120 E0.01677
G1 X156.787 Y23.737 E2.23728
G1 X157.321 Y23.737 E0.01677
G1 X207.170 Y73.586 E2.21357
G1 X207.170 Y73.052 E0.01677
G1 X157.767 Y23.649 E2.19376
G1 X158.184 Y23.532 E0.01359
G1 X207.170 Y72.518 E2.17526
G1 X207.170 Y71.984 E0.01677
G1 X158.534 Y23.348 E2.15971
G1 X158.787 Y23.215 E0.00898
G1 X158.866 Y23.146 E0.00329
G1 X207.170 Y71.450 E2.14498
G1 X207.170 Y70.916 E0.01677
G1 X159.149 Y22.895 E2.13241
G1 X159.342 Y22.723 E0.00811
