; generated by PrusaSlicer 2.1.0+linux64 on 2019-09-25 at 12:06:23 UTC

; 

; external perimeters extrusion width = 0.45mm
; perimeters extrusion width = 0.45mm
; infill extrusion width = 0.45mm
; solid infill extrusion width = 0.45mm
; top infill extrusion width = 0.40mm
; first layer extrusion width = 0.42mm

M73 P0 R150
M73 Q0 S151
M201 X1000 Y1000 Z1000 E5000 ; sets maximum accelerations, mm/sec^2
M203 X200 Y200 Z12 E120 ; sets maximum feedrates, mm/sec
M204 P1250 R1250 T1250 ; sets acceleration (P, T) and retract acceleration (R), mm/sec^2
M205 X8.00 Y8.00 Z0.40 E1.50 ; sets the jerk limits, mm/sec
M205 S0 T0 ; sets the minimum extruding and travel feed rate, mm/sec
M107
M862.3 P "MK3S" ; printer model check
M862.1 P0.4 ; nozzle diameter check
M115 U3.8.0 ; tell printer latest fw version
G90 ; use absolute coordinates
M83 ; extruder relative mode
M104 S215 ; set extruder temp
M140 S60 ; set bed temp
M190 S60 ; wait for bed temp
M109 S215 ; wait for extruder temp
G28 W ; home all without mesh bed level
G80 ; mesh bed leveling
G1 Y-3.0 F1000.0 ; go outside print area
G92 E0.0
G1 X60.0 E9.0 F1000.0 ; intro line
M73 Q0 S151
M73 P0 R150
G1 X100.0 E12.5 F1000.0 ; intro line
G92 E0.0
M221 S95
G21 ; set units to millimeters
G90 ; use absolute coordinates
M83 ; use relative distances for extrusion
M900 K30 ; Filament gcode
;BEFORE_LAYER_CHANGE
G92 E0.0
;0.2


G1 E-0.80000 F2100.00000
G1 Z0.600 F10800.000
;AFTER_LAYER_CHANGE
;0.2
G1 X200.708 Y34.470
G1 Z0.200
G1 E0.80000 F2100.00000
M204 S1000
G1 F1200
G1 X201.413 Y34.938 E0.02653
G1 X201.889 Y35.638 E0.02653
G1 X202.063 Y36.462 E0.02642
G1 X202.043 Y176.798 E4.40014
G1 X201.949 Y177.432 E0.02010
G1 X201.655 Y178.042 E0.02123
G1 X201.186 Y178.535 E0.02134
G1 X200.591 Y178.859 E0.02123
G1 X199.926 Y178.985 E0.02123
G1 X156.851 Y178.986 E1.35058
G1 X156.221 Y178.893 E0.01998
G1 X155.647 Y178.623 E0.01987
G1 X155.175 Y178.201 E0.01987
G1 X154.844 Y177.660 E0.01987
G1 X154.681 Y177.048 E0.01987
G1 X141.697 Y52.717 E3.91950
G1 X141.686 Y40.465 E0.38418
G1 X141.879 Y38.972 E0.04717
G1 X142.295 Y37.816 E0.03854
G1 X142.906 Y36.817 E0.03671
G1 X144.012 Y35.658 E0.05024
G1 X145.387 Y34.834 E0.05025
G1 X146.500 Y34.460 E0.03682
G1 X147.698 Y34.312 E0.03785
G1 X199.878 Y34.305 E1.63605
G1 X200.649 Y34.458 E0.02465
G1 F8640
G1 X201.413 Y34.938 E-0.20828
G1 X201.889 Y35.638 E-0.19539
G1 X202.063 Y36.462 E-0.19457
G1 X202.063 Y37.163 E-0.16176
G1 E-0.04000 F2100.00000
G1 Z0.800 F10800.000
G1 X151.585 Y50.826
G1 Z0.200
G1 E0.80000 F2100.00000
G1 F1200
G1 X151.666 Y51.494 E0.02110
G1 X151.585 Y52.162 E0.02110
G1 X151.346 Y52.791 E0.02110
G1 X150.964 Y53.345 E0.02110
G1 X150.460 Y53.791 E0.02110
G1 X149.864 Y54.104 E0.02110
G1 X149.211 Y54.265 E0.02110
G1 X148.538 Y54.265 E0.02110
G1 X147.884 Y54.104 E0.02110
G1 X147.289 Y53.791 E0.02110
G1 X146.785 Y53.345 E0.02110
G1 X146.403 Y52.791 E0.02110
G1 X146.164 Y52.162 E0.02110
G1 X146.083 Y51.493 E0.02114
G1 X146.168 Y50.816 E0.02137
G1 X146.403 Y50.197 E0.02079
G1 X146.786 Y49.642 E0.02114
G1 X147.298 Y49.192 E0.02137
G1 X147.884 Y48.884 E0.02079
G1 X148.538 Y48.723 E0.02110
G1 X149.211 Y48.723 E0.02110
G1 X149.864 Y48.884 E0.02110
G1 X150.460 Y49.196 E0.02110
G1 X150.964 Y49.643 E0.02110
G1 X151.346 Y50.197 E0.02110
G1 X151.563 Y50.770 E0.01922
G1 X151.211 Y50.903 F10800.000
G1 F1200
G1 X151.286 Y51.494 E0.01866
G1 X151.216 Y52.071 E0.01823
G1 X151.010 Y52.614 E0.01823
G1 X150.679 Y53.093 E0.01823
G1 X150.244 Y53.478 E0.01823
G1 X149.729 Y53.749 E0.01823
G1 X149.165 Y53.888 E0.01823
G1 X148.584 Y53.888 E0.01823
G1 X148.019 Y53.749 E0.01823
G1 X147.504 Y53.478 E0.01823
G1 X147.069 Y53.093 E0.01823
G1 X146.739 Y52.614 E0.01823
G1 X146.533 Y52.071 E0.01823
G1 X146.463 Y51.493 E0.01824
G1 X146.536 Y50.908 E0.01850
G1 X146.739 Y50.373 E0.01794
G1 X147.070 Y49.894 E0.01824
G1 X147.513 Y49.505 E0.01850
G1 X148.019 Y49.239 E0.01794
G1 X148.584 Y49.100 E0.01823
G1 X149.165 Y49.100 E0.01823
G1 X149.729 Y49.239 E0.01823
G1 X150.244 Y49.509 E0.01823
G1 X150.679 Y49.895 E0.01823
G1 X151.010 Y50.373 E0.01823
G1 X151.189 Y50.847 E0.01590
G1 X151.595 Y51.013 F10800.000
G1 F8640
G1 X151.286 Y51.494 E-0.15093
G1 X151.216 Y52.071 E-0.13424
G1 X151.010 Y52.614 E-0.13424
G1 X150.679 Y53.093 E-0.13424
G1 X150.244 Y53.478 E-0.13424
G1 X149.968 Y53.624 E-0.07212
G1 E-0.04000 F2100.00000
G1 Z0.800 F10800.000
G1 X149.864 Y44.104
G1 Z0.200
G1 E0.80000 F2100.00000
G1 F1200
G1 X149.211 Y44.265 E0.02110
G1 X148.538 Y44.265 E0.02110
G1 X147.884 Y44.104 E0.02110
G1 X147.289 Y43.791 E0.02110
G1 X146.785 Y43.345 E0.02110
G1 X146.403 Y42.791 E0.02110
G1 X146.164 Y42.162 E0.02110
G1 X146.083 Y41.493 E0.02114
G1 X146.168 Y40.816 E0.02137
G1 X146.403 Y40.197 E0.02079
G1 X146.786 Y39.642 E0.02114
G1 X147.298 Y39.192 E0.02137
G1 X147.884 Y38.884 E0.02079
G1 X148.538 Y38.723 E0.02110
G1 X149.211 Y38.723 E0.02110
G1 X149.864 Y38.884 E0.02110
G1 X150.460 Y39.196 E0.02110
G1 X150.964 Y39.643 E0.02110
G1 X151.346 Y40.197 E0.02110
G1 X151.585 Y40.826 E0.02110
G1 X151.666 Y41.495 E0.02114
G1 X151.581 Y42.171 E0.02137
G1 X151.346 Y42.791 E0.02079
G1 X150.964 Y43.345 E0.02110
G1 X150.460 Y43.791 E0.02110
G1 X149.917 Y44.076 E0.01922
G1 X149.742 Y43.742 F10800.000
G1 F1200
G1 X149.165 Y43.888 E0.01866
G1 X148.584 Y43.888 E0.01823
G1 X148.019 Y43.749 E0.01823
G1 X147.504 Y43.478 E0.01823
G1 X147.069 Y43.093 E0.01823
G1 X146.739 Y42.614 E0.01823
G1 X146.533 Y42.071 E0.01823
G1 X146.463 Y41.493 E0.01824
G1 X146.536 Y40.908 E0.01850
G1 X146.739 Y40.373 E0.01794
G1 X147.070 Y39.894 E0.01824
G1 X147.513 Y39.505 E0.01850
G1 X148.019 Y39.239 E0.01794
G1 X148.584 Y39.100 E0.01823
G1 X149.165 Y39.100 E0.01823
G1 X149.729 Y39.239 E0.01823
G1 X150.244 Y39.509 E0.01823
G1 X150.679 Y39.895 E0.01823
G1 X151.010 Y40.373 E0.01823
G1 X151.216 Y40.917 E0.01823
G1 X151.286 Y41.494 E0.01824
G1 X151.213 Y42.080 E0.01850
G1 X151.010 Y42.614 E0.01794
G1 X150.679 Y43.093 E0.01823
G1 X150.244 Y43.478 E0.01823
G1 X149.795 Y43.714 E0.01590
G1 X149.680 Y44.137 F10800.000
G1 F8640
G1 X149.165 Y43.888 E-0.15093
G1 X148.584 Y43.888 E-0.13424
G1 X148.019 Y43.749 E-0.13424
G1 X147.504 Y43.478 E-0.13424
G1 X147.069 Y43.093 E-0.13424
G1 X146.892 Y42.836 E-0.07212
G1 E-0.04000 F2100.00000
G1 Z0.800 F10800.000
G1 X156.461 Y55.907
G1 Z0.200
G1 E0.80000 F2100.00000
G1 F1200
G1 X147.907 Y55.907 E0.26821
G1 X147.116 Y55.817 E0.02498
G1 X146.395 Y55.565 E0.02394
G1 X145.749 Y55.159 E0.02394
G1 X145.209 Y54.619 E0.02394
G1 X144.803 Y53.973 E0.02394
G1 X144.551 Y53.252 E0.02394
G1 X144.461 Y52.461 E0.02498
G1 X144.461 Y40.527 E0.37418
G1 X144.551 Y39.735 E0.02498
G1 X144.803 Y39.015 E0.02394
G1 X145.209 Y38.368 E0.02394
G1 X145.749 Y37.828 E0.02394
G1 X146.395 Y37.422 E0.02394
G1 X147.116 Y37.170 E0.02394
G1 X147.907 Y37.081 E0.02498
G1 X199.287 Y37.081 E1.61098
G1 X199.287 Y100.907 E2.00121
G1 X156.461 Y100.907 E1.34277
G1 X156.461 Y55.967 E1.40906
G1 X156.084 Y56.284 F10800.000
G1 F1200
G1 X147.886 Y56.284 E0.25705
G1 X147.031 Y56.187 E0.02697
G1 X146.230 Y55.907 E0.02660
G1 X145.512 Y55.456 E0.02660
G1 X144.912 Y54.856 E0.02660
G1 X144.461 Y54.138 E0.02660
G1 X144.181 Y53.337 E0.02660
G1 X144.084 Y52.482 E0.02697
G1 X144.084 Y40.506 E0.37551
G1 X144.181 Y39.651 E0.02697
G1 X144.461 Y38.850 E0.02660
G1 X144.912 Y38.132 E0.02660
G1 X145.512 Y37.532 E0.02660
G1 X146.230 Y37.080 E0.02660
G1 X147.031 Y36.800 E0.02660
G1 X147.886 Y36.704 E0.02697
G1 X199.664 Y36.704 E1.62347
G1 X199.664 Y101.284 E2.02486
G1 X156.084 Y101.284 E1.36642
G1 X156.084 Y56.344 E1.40906
G1 X155.983 Y55.897 F10800.000
G1 X156.130 Y55.794
G1 F1200
G1 X151.937 Y51.602 E0.18615
G1 X151.880 Y52.078 E0.01506
G1 X155.426 Y55.624 E0.15747
G1 X154.892 Y55.624 E0.01677
G1 X151.761 Y52.493 E0.13901
G1 X151.614 Y52.881 E0.01300
G1 X154.358 Y55.624 E0.12182
G1 X153.824 Y55.624 E0.01677
G1 X151.404 Y53.204 E0.10744
G1 X151.186 Y53.520 E0.01205
G1 X153.290 Y55.624 E0.09341
G1 X152.756 Y55.624 E0.01677
G1 X150.906 Y53.774 E0.08215
G1 X150.623 Y54.025 E0.01188
G1 X152.222 Y55.624 E0.07101
G1 X151.688 Y55.624 E0.01677
G1 X150.272 Y54.209 E0.06284
G1 X149.913 Y54.383 E0.01255
G1 X151.153 Y55.624 E0.05510
G1 X150.619 Y55.624 E0.01677
G1 X149.484 Y54.489 E0.05041
G1 X149.245 Y54.548 E0.00773
G1 X149.009 Y54.548 E0.00741
G1 X150.085 Y55.624 E0.04779
G1 X149.551 Y55.624 E0.01677
G1 X148.466 Y54.538 E0.04821
G1 X147.741 Y54.348 E0.02351
G1 X149.017 Y55.624 E0.05666
G1 X148.483 Y55.624 E0.01677
G1 X144.744 Y51.885 E0.16604
G1 X144.744 Y51.351 E0.01677
G1 X146.049 Y52.655 E0.05793
G1 X145.887 Y52.230 E0.01429
G1 X145.850 Y51.923 E0.00972
G1 X144.744 Y50.817 E0.04911
G1 X144.744 Y50.283 E0.01677
G1 X145.815 Y51.354 E0.04756
G1 X145.875 Y50.879 E0.01502
G1 X144.744 Y49.749 E0.05020
G1 X144.744 Y49.215 E0.01677
G1 X145.997 Y50.468 E0.05565
G1 X146.144 Y50.081 E0.01300
G1 X144.744 Y48.681 E0.06217
G1 X144.744 Y48.147 E0.01677
G1 X146.359 Y49.762 E0.07172
G1 X146.579 Y49.447 E0.01204
G1 X144.744 Y47.612 E0.08147
G1 X144.744 Y47.078 E0.01677
G1 X146.863 Y49.197 E0.09409
G1 X147.150 Y48.950 E0.01189
G1 X144.744 Y46.544 E0.10682
G1 X144.744 Y46.010 E0.01677
G1 X147.500 Y48.766 E0.12237
G1 X147.783 Y48.617 E0.01005
G1 X147.865 Y48.597 E0.00264
G1 X144.744 Y45.476 E0.13859
G1 X144.744 Y44.942 E0.01677
G1 X148.294 Y48.492 E0.15761
G1 X148.504 Y48.440 E0.00679
G1 X148.776 Y48.440 E0.00855
G1 X144.744 Y44.408 E0.17903
G1 X144.744 Y43.874 E0.01677
G1 X149.331 Y48.461 E0.20369
G1 X149.965 Y48.617 E0.02051
G1 X150.084 Y48.680 E0.00420
G1 X144.744 Y43.340 E0.23710
G1 X144.744 Y42.806 E0.01677
G1 X199.004 Y97.066 E2.40947
M73 Q0 S149
M73 P0 R149
G1 X199.004 Y96.532 E0.01677
G1 X144.744 Y42.272 E2.40947
G1 X144.744 Y41.738 E0.01677
G1 X199.174 Y96.168 E2.41701
G1 F8640
G1 X196.847 Y93.841 E-0.76000
G1 E-0.04000 F2100.00000
G1 Z0.800 F10800.000
G1 X199.174 Y97.770
G1 Z0.200
G1 E0.80000 F2100.00000
G1 F1200
G1 X151.678 Y50.274 E2.10912
G1 X151.861 Y50.758 E0.01625
G1 X151.893 Y51.023 E0.00841
G1 X199.004 Y98.134 E2.09200
G1 X199.004 Y98.669 E0.01677
G1 X156.744 Y56.408 E1.87660
G1 X156.744 Y56.942 E0.01677
G1 X199.004 Y99.203 E1.87660
G1 X199.004 Y99.737 E0.01677
G1 X156.744 Y57.476 E1.87660
G1 X156.744 Y58.010 E0.01677
G1 X199.004 Y100.271 E1.87660
G1 X199.004 Y100.624 E0.01109
G1 X198.824 Y100.624 E0.00568
G1 X156.744 Y58.544 E1.86857
G1 X156.744 Y59.078 E0.01677
G1 X198.290 Y100.624 E1.84486
G1 X197.756 Y100.624 E0.01677
G1 X156.744 Y59.612 E1.82114
G1 X156.744 Y60.147 E0.01677
G1 X197.222 Y100.624 E1.79743
G1 X196.688 Y100.624 E0.01677
G1 X156.744 Y60.681 E1.77371
G1 X156.744 Y61.215 E0.01677
G1 X196.153 Y100.624 E1.75000
G1 X195.619 Y100.624 E0.01677
G1 X156.744 Y61.749 E1.72629
G1 X156.744 Y62.283 E0.01677
G1 X195.085 Y100.624 E1.70257
G1 X194.551 Y100.624 E0.01677
G1 X156.744 Y62.817 E1.67886
G1 X156.744 Y63.351 E0.01677
G1 X194.017 Y100.624 E1.65514
G1 X193.483 Y100.624 E0.01677
G1 X156.744 Y63.885 E1.63143
G1 X156.744 Y64.419 E0.01677
G1 X192.949 Y100.624 E1.60771
M73 Q1 S148
M73 P1 R148
G1 X192.415 Y100.624 E0.01677
G1 X156.744 Y64.953 E1.58400
G1 X156.744 Y65.487 E0.01677
G1 X191.881 Y100.624 E1.56028
G1 X191.347 Y100.624 E0.01677
G1 X156.744 Y66.021 E1.53657
G1 X156.744 Y66.555 E0.01677
G1 X190.813 Y100.624 E1.51285
G1 X190.279 Y100.624 E0.01677
G1 X156.744 Y67.089 E1.48914
G1 X156.744 Y67.623 E0.01677
G1 X189.745 Y100.624 E1.46543
G1 X189.211 Y100.624 E0.01677
G1 X156.744 Y68.157 E1.44171
G1 X156.744 Y68.691 E0.01677
G1 X188.677 Y100.624 E1.41800
G1 X188.143 Y100.624 E0.01677
G1 X156.744 Y69.225 E1.39428
G1 X156.744 Y69.759 E0.01677
G1 X187.609 Y100.624 E1.37057
G1 X187.075 Y100.624 E0.01677
G1 X156.744 Y70.293 E1.34685
G1 X156.744 Y70.827 E0.01677
G1 X186.541 Y100.624 E1.32314
G1 X186.007 Y100.624 E0.01677
G1 X156.744 Y71.361 E1.29942
G1 X156.744 Y71.895 E0.01677
G1 X185.473 Y100.624 E1.27571
G1 X184.939 Y100.624 E0.01677
G1 X156.744 Y72.430 E1.25199
G1 X156.744 Y72.964 E0.01677
G1 X184.405 Y100.624 E1.22828
G1 X183.870 Y100.624 E0.01677
G1 X156.744 Y73.498 E1.20456
G1 X156.744 Y74.032 E0.01677
G1 X183.336 Y100.624 E1.18085
G1 X182.802 Y100.624 E0.01677
G1 X156.744 Y74.566 E1.15714
G1 X156.744 Y75.100 E0.01677
G1 X182.268 Y100.624 E1.13342
G1 X181.734 Y100.624 E0.01677
G1 X156.744 Y75.634 E1.10971
G1 X156.744 Y76.168 E0.01677
G1 X181.200 Y100.624 E1.08599
G1 X180.666 Y100.624 E0.01677
G1 X156.744 Y76.702 E1.06228
G1 X156.744 Y77.236 E0.01677
G1 X180.132 Y100.624 E1.03856
G1 X179.598 Y100.624 E0.01677
G1 X156.744 Y77.770 E1.01485
G1 X156.744 Y78.304 E0.01677
G1 X179.064 Y100.624 E0.99113
G1 X178.530 Y100.624 E0.01677
G1 X156.744 Y78.838 E0.96742
G1 X156.744 Y79.372 E0.01677
G1 X177.996 Y100.624 E0.94370
G1 X177.462 Y100.624 E0.01677
G1 X156.744 Y79.906 E0.91999
G1 X156.744 Y80.440 E0.01677
G1 X176.928 Y100.624 E0.89628
M73 Q2 S147
M73 P2 R147
G1 X176.394 Y100.624 E0.01677
G1 X156.744 Y80.974 E0.87256
G1 X156.744 Y81.508 E0.01677
G1 X175.860 Y100.624 E0.84885
G1 X175.326 Y100.624 E0.01677
G1 X156.744 Y82.042 E0.82513
G1 X156.744 Y82.576 E0.01677
G1 X174.792 Y100.624 E0.80142
G1 X174.258 Y100.624 E0.01677
G1 X156.744 Y83.110 E0.77770
G1 X156.744 Y83.644 E0.01677
G1 X173.724 Y100.624 E0.75399
G1 X173.190 Y100.624 E0.01677
G1 X156.744 Y84.178 E0.73027
G1 X156.744 Y84.712 E0.01677
G1 X172.656 Y100.624 E0.70656
G1 X172.122 Y100.624 E0.01677
G1 X156.744 Y85.247 E0.68284
G1 X156.744 Y85.781 E0.01677
G1 X171.588 Y100.624 E0.65913
G1 X171.053 Y100.624 E0.01677
G1 X156.744 Y86.315 E0.63541
G1 X156.744 Y86.849 E0.01677
G1 X170.519 Y100.624 E0.61170
G1 X169.985 Y100.624 E0.01677
G1 X156.744 Y87.383 E0.58799
G1 X156.744 Y87.917 E0.01677
G1 X169.451 Y100.624 E0.56427
G1 X168.917 Y100.624 E0.01677
G1 X156.744 Y88.451 E0.54056
G1 X156.744 Y88.985 E0.01677
G1 X168.383 Y100.624 E0.51684
G1 X167.849 Y100.624 E0.01677
G1 X156.744 Y89.519 E0.49313
G1 X156.744 Y90.053 E0.01677
G1 X167.315 Y100.624 E0.46941
G1 X166.781 Y100.624 E0.01677
G1 X156.744 Y90.587 E0.44570
G1 X156.744 Y91.121 E0.01677
G1 X166.247 Y100.624 E0.42198
G1 X165.713 Y100.624 E0.01677
G1 X156.744 Y91.655 E0.39827
G1 X156.744 Y92.189 E0.01677
G1 X165.179 Y100.624 E0.37455
G1 X164.645 Y100.624 E0.01677
G1 X156.744 Y92.723 E0.35084
G1 X156.744 Y93.257 E0.01677
G1 X164.111 Y100.624 E0.32713
G1 X163.577 Y100.624 E0.01677
G1 X156.744 Y93.791 E0.30341
G1 X156.744 Y94.325 E0.01677
G1 X163.043 Y100.624 E0.27970
G1 X162.509 Y100.624 E0.01677
G1 X156.744 Y94.859 E0.25598
G1 X156.744 Y95.393 E0.01677
G1 X161.975 Y100.624 E0.23227
G1 X161.441 Y100.624 E0.01677
G1 X156.744 Y95.927 E0.20855
G1 X156.744 Y96.461 E0.01677
G1 X160.907 Y100.624 E0.18484
G1 X160.373 Y100.624 E0.01677
G1 X156.744 Y96.995 E0.16112
G1 X156.744 Y97.529 E0.01677
G1 X159.839 Y100.624 E0.13741
G1 X159.305 Y100.624 E0.01677
G1 X156.744 Y98.064 E0.11369
G1 X156.744 Y98.598 E0.01677
G1 X158.770 Y100.624 E0.08998
G1 X158.236 Y100.624 E0.01677
G1 X156.744 Y99.132 E0.06626
G1 X156.744 Y99.666 E0.01677
G1 X157.702 Y100.624 E0.04255
G1 X157.168 Y100.624 E0.01677
G1 X156.575 Y100.030 E0.02637
G1 F8640
G1 X157.168 Y100.624 E-0.19392
G1 X157.702 Y100.624 E-0.12331
G1 X156.744 Y99.666 E-0.31290
G1 X156.744 Y99.132 E-0.12331
G1 X156.764 Y99.152 E-0.00656
G1 E-0.04000 F2100.00000
G1 Z0.800 F10800.000
G1 X148.119 Y55.794
G1 Z0.200
G1 E0.80000 F2100.00000
G1 F1200
G1 X144.744 Y52.419 E0.14986
G1 X144.809 Y53.017 E0.01890
G1 X147.351 Y55.559 E0.11288
G1 X147.179 Y55.540 E0.00542
G1 X146.592 Y55.335 E0.01954
G1 X144.757 Y53.500 E0.08148
G1 F8640
G1 X146.592 Y55.335 E-0.59915
G1 X147.179 Y55.540 E-0.14366
G1 X147.253 Y55.548 E-0.01719
G1 E-0.04000 F2100.00000
G1 Z0.800 F10800.000
G1 X147.952 Y44.412
G1 Z0.200
G1 E0.80000 F2100.00000
G1 F1200
G1 X199.004 Y95.464 E2.26703
G1 X199.004 Y94.930 E0.01677
G1 X148.622 Y44.548 E2.23728
G1 X149.156 Y44.548 E0.01677
G1 X199.004 Y94.396 E2.21357
G1 X199.004 Y93.862 E0.01677
G1 X149.602 Y44.460 E2.19376
G1 X150.018 Y44.342 E0.01359
G1 X199.004 Y93.328 E2.17526
G1 X199.004 Y92.794 E0.01677
G1 X150.369 Y44.158 E2.15971
G1 X150.622 Y44.025 E0.00898
G1 X150.700 Y43.956 E0.00329
G1 X199.004 Y92.260 E2.14498
G1 X199.004 Y91.726 E0.01677
